svg/furkot/mapbox-maki/entrance.svg

<svg viewBox="0 0 512 512" xmlns="http://www.w3.org/2000/svg"><path d="m236.309 217.23v-39.384c0-21.753-17.634-39.385-39.386-39.385s-39.384 17.632-39.384 39.385v118.154zm-92.555 159.901 13.785-297.747c0-21.752 17.632-39.384 39.384-39.384s39.386 17.632 39.386 39.384-17.634 39.384-39.386 39.384-39.384-17.632-39.384-39.384z"/><path d="m512 197.538c0 21.752-17.632 39.385-39.384 39.385h-62.228c-10.469-.06-20.532 4.049-27.964 11.421l-213.463 213.465c-7.338 7.274-17.239 11.378-27.57 11.421h-102.005c-21.753 0-39.386-17.633-39.386-39.385s17.633-39.384 39.386-39.384h62.621c10.33-.044 20.232-4.148 27.569-11.422l213.464-213.463c7.432-7.374 17.495-11.482 27.964-11.422h101.612c21.752 0 39.384 17.632 39.384 39.384z"/></svg>

<svg viewBox="0 0 512 512" xmlns="http://www.w3.org/2000/svg"><path d="M 236.309 217.23 L 236.309 177.846 C 236.309 156.093 218.675 138.461 196.923 138.461 C 175.171 138.461 157.539 156.093 157.539 177.846 L 157.539 296 L 236.309 217.23 Z M 143.754 377.131 L 157.539 79.384 C 157.539 57.632 175.171 40 196.923 40 C 218.675 40 236.309 57.632 236.309 79.384 C 236.309 101.136 218.675 118.768 196.923 118.768 C 175.171 118.768 157.539 101.136 157.539 79.384 L 143.754 377.131 Z"/><path d="M 512 197.538 L 512 197.538 C 512 219.29 494.368 236.923 472.616 236.923 L 410.388 236.923 C 399.919 236.863 389.856 240.972 382.424 248.344 L 168.961 461.809 C 161.623 469.083 151.722 473.187 141.391 473.23 L 39.386 473.23 C 17.633 473.23 0 455.597 0 433.845 L 0 433.845 C 0 412.093 17.633 394.461 39.386 394.461 L 102.007 394.461 C 112.337 394.417 122.239 390.313 129.576 383.039 L 343.04 169.576 C 350.472 162.202 360.535 158.094 371.004 158.154 L 472.616 158.154 C 494.368 158.154 512 175.786 512 197.538 Z"/></svg>
